Newaita-dark/apps/128/guake-prefs.svg

<?xml version="1.0" encoding="UTF-8"?>
<svg xmlns="http://www.w3.org/2000/svg" xmlns:xlink="http://www.w3.org/1999/xlink" width="128pt" height="128pt" viewBox="0 0 128 128" version="1.1">
<defs>
<linearGradient id="linear0" gradientUnits="userSpaceOnUse" x1="254" y1="233.5" x2="254" y2="254.666672" gradientTransform="matrix(0.250024,0,0,0.250024,-2.646127,53.755133)">
<stop offset="0" style="stop-color:rgb(0%,0%,0%);stop-opacity:0.27451;"/>
<stop offset="1" style="stop-color:rgb(0%,0%,0%);stop-opacity:0;"/>
</linearGradient>
<radialGradient id="radial0" gradientUnits="userSpaceOnUse" cx="450.908936" cy="189.579361" fx="450.908936" fy="189.579361" r="21.166656" gradientTransform="matrix(0.000000696681,-0.31253,-0.562554,-0.000000406154,213.814755,254.38133)">
<stop offset="0" style="stop-color:rgb(0%,0%,0%);stop-opacity:0.313725;"/>
<stop offset="0.222222" style="stop-color:rgb(0%,0%,0%);stop-opacity:0.27451;"/>
<stop offset="1" style="stop-color:rgb(0%,0%,0%);stop-opacity:0;"/>
</radialGradient>
<radialGradient id="radial1" gradientUnits="userSpaceOnUse" cx="450.908936" cy="189.579361" fx="450.908936" fy="189.579361" r="21.166656" gradientTransform="matrix(-0.000000696681,0.31253,0.562554,0.000000406154,-86.802615,-30.109915)">
<stop offset="0" style="stop-color:rgb(0%,0%,0%);stop-opacity:0.313725;"/>
<stop offset="0.222222" style="stop-color:rgb(0%,0%,0%);stop-opacity:0.27451;"/>
<stop offset="1" style="stop-color:rgb(0%,0%,0%);stop-opacity:0;"/>
</radialGradient>
<radialGradient id="radial2" gradientUnits="userSpaceOnUse" cx="450.908936" cy="189.579361" fx="450.908936" fy="189.579361" r="21.166656" gradientTransform="matrix(-0.000000696681,-0.31253,0.562554,-0.000000406154,-86.802615,254.38133)">
<stop offset="0" style="stop-color:rgb(0%,0%,0%);stop-opacity:0.313725;"/>
<stop offset="0.222222" style="stop-color:rgb(0%,0%,0%);stop-opacity:0.27451;"/>
<stop offset="1" style="stop-color:rgb(0%,0%,0%);stop-opacity:0;"/>
</radialGradient>
<radialGradient id="radial3" gradientUnits="userSpaceOnUse" cx="450.908936" cy="189.579361" fx="450.908936" fy="189.579361" r="21.166656" gradientTransform="matrix(0.000000696681,0.31253,-0.562554,0.000000406154,213.814747,-30.109917)">
<stop offset="0" style="stop-color:rgb(0%,0%,0%);stop-opacity:0.313725;"/>
<stop offset="0.222222" style="stop-color:rgb(0%,0%,0%);stop-opacity:0.27451;"/>
<stop offset="1" style="stop-color:rgb(0%,0%,0%);stop-opacity:0;"/>
</radialGradient>
<linearGradient id="linear1" gradientUnits="userSpaceOnUse" x1="306.752655" y1="-16.485477" x2="305.954529" y2="-141.414581" gradientTransform="matrix(0.288294,0,0,0.762505,-19.636826,124.705969)">
<stop offset="0" style="stop-color:rgb(40%,73.333333%,41.568627%);stop-opacity:1;"/>
<stop offset="1" style="stop-color:rgb(50.588235%,78.039216%,51.764706%);stop-opacity:1;"/>
</linearGradient>
<linearGradient id="linear2" gradientUnits="userSpaceOnUse" x1="254" y1="148.833328" x2="254" y2="-41.666668" gradientTransform="matrix(1,0,0,1,127.000008,80.679832)">
<stop offset="0" style="stop-color:rgb(25.882353%,25.882353%,25.882353%);stop-opacity:1;"/>
<stop offset="1" style="stop-color:rgb(38.039216%,38.039216%,38.039216%);stop-opacity:1;"/>
</linearGradient>
</defs>
<g id="surface1">
<path style=" stroke:none;fill-rule:nonzero;fill:url(#linear0);" d="M 18.523438 112.429688 L 108.488281 112.429688 L 108.488281 117.429688 L 18.523438 117.429688 Z M 18.523438 112.429688 "/>
<path style=" stroke:none;fill-rule:nonzero;fill:url(#radial0);" d="M 108.488281 112.136719 L 119.074219 112.136719 L 119.074219 106.84375 L 108.488281 106.84375 Z M 108.488281 112.136719 "/>
<path style=" stroke:none;fill-rule:nonzero;fill:url(#radial1);" d="M 18.523438 112.136719 L 7.9375 112.136719 L 7.9375 117.429688 L 18.523438 117.429688 Z M 18.523438 112.136719 "/>
<path style=" stroke:none;fill-rule:nonzero;fill:url(#radial2);" d="M 18.523438 112.136719 L 7.9375 112.136719 L 7.9375 106.84375 L 18.523438 106.84375 Z M 18.523438 112.136719 "/>
<path style=" stroke:none;fill-rule:nonzero;fill:url(#radial3);" d="M 108.488281 112.136719 L 119.074219 112.136719 L 119.074219 117.429688 L 108.488281 117.429688 Z M 108.488281 112.136719 "/>
<path style=" stroke:none;fill-rule:nonzero;fill:url(#linear1);" d="M 13.230469 16.875 L 113.78125 16.875 C 116.703125 16.875 119.074219 19.113281 119.074219 21.875 L 119.074219 107.136719 C 119.074219 109.898438 116.703125 112.136719 113.78125 112.136719 L 13.230469 112.136719 C 10.308594 112.136719 7.9375 109.898438 7.9375 107.136719 L 7.9375 21.875 C 7.9375 19.113281 10.308594 16.875 13.230469 16.875 Z M 13.230469 16.875 "/>
<path style=" stroke:none;fill-rule:nonzero;fill:rgb(0%,0%,0%);fill-opacity:0.588235;" d="M 34.625 50.632812 C 33.589844 49.597656 31.921875 49.597656 30.882812 50.632812 C 29.847656 51.671875 29.847656 53.339844 30.882812 54.375 L 38.367188 61.859375 L 30.882812 69.34375 C 29.847656 70.382812 29.847656 72.050781 30.882812 73.085938 C 31.921875 74.121094 33.589844 74.121094 34.625 73.085938 L 43.980469 63.730469 C 44.046875 63.667969 44.105469 63.597656 44.164062 63.53125 C 45.015625 62.488281 44.953125 60.960938 43.980469 59.988281 Z M 34.625 50.632812 "/>
<path style=" stroke:none;fill-rule:nonzero;fill:rgb(100%,100%,100%);fill-opacity:0.392157;" d="M 13.230469 16.875 C 10.296875 16.875 7.9375 19.105469 7.9375 21.875 L 7.9375 23.199219 C 7.9375 20.429688 10.296875 18.199219 13.230469 18.199219 L 113.78125 18.199219 C 116.714844 18.199219 119.074219 20.429688 119.074219 23.199219 L 119.074219 21.875 C 119.074219 19.105469 116.714844 16.875 113.78125 16.875 Z M 13.230469 16.875 "/>
<path style=" stroke:none;fill-rule:nonzero;fill:rgb(0%,0%,0%);fill-opacity:0.235294;" d="M 13.230469 112.171875 C 10.296875 112.171875 7.9375 109.941406 7.9375 107.175781 L 7.9375 105.851562 C 7.9375 108.621094 10.296875 110.847656 13.230469 110.847656 L 113.78125 110.847656 C 116.714844 110.847656 119.074219 108.621094 119.074219 105.851562 L 119.074219 107.175781 C 119.074219 109.941406 116.714844 112.171875 113.78125 112.171875 Z M 13.230469 112.171875 "/>
<path style=" stroke:none;fill-rule:nonzero;fill:rgb(12.941177%,12.941177%,12.941177%);fill-opacity:0.952941;" d="M 15.875 21.855469 C 14.242188 21.855469 12.917969 23.179688 12.917969 24.816406 L 12.917969 98.90625 C 12.917969 100.539062 14.242188 101.863281 15.875 101.863281 L 111.136719 101.863281 C 112.769531 101.863281 114.09375 100.539062 114.09375 98.90625 L 114.09375 24.816406 C 114.09375 23.179688 112.769531 21.855469 111.136719 21.855469 Z M 15.875 22.480469 L 111.136719 22.480469 C 112.433594 22.480469 113.46875 23.515625 113.46875 24.816406 L 113.46875 98.90625 C 113.46875 100.203125 112.433594 101.238281 111.136719 101.238281 L 15.875 101.238281 C 14.578125 101.238281 13.542969 100.203125 13.542969 98.90625 L 13.542969 24.816406 C 13.542969 23.515625 14.578125 22.480469 15.875 22.480469 Z M 15.875 22.480469 "/>
<path style=" stroke:none;fill-rule:nonzero;fill:rgb(87.058824%,87.058824%,87.058824%);fill-opacity:0.929412;" d="M 15.875 22.519531 C 14.609375 22.519531 13.578125 23.546875 13.578125 24.816406 L 13.578125 98.90625 C 13.578125 100.171875 14.609375 101.203125 15.875 101.203125 L 111.136719 101.203125 C 112.402344 101.203125 113.433594 100.171875 113.433594 98.90625 L 113.433594 24.816406 C 113.433594 23.546875 112.402344 22.519531 111.136719 22.519531 Z M 15.875 23.144531 L 111.136719 23.144531 C 112.066406 23.144531 112.808594 23.882812 112.808594 24.816406 L 112.808594 98.90625 C 112.808594 99.835938 112.066406 100.578125 111.136719 100.578125 L 15.875 100.578125 C 14.945312 100.578125 14.203125 99.835938 14.203125 98.90625 L 14.203125 24.816406 C 14.203125 23.882812 14.945312 23.144531 15.875 23.144531 Z M 15.875 23.144531 "/>
<path style="fill:none;stroke-width:3;stroke-linecap:round;stroke-linejoin:miter;stroke:rgb(12.941177%,12.941177%,12.941177%);stroke-opacity:1;stroke-miterlimit:4;" d="M 52.916822 -147.506445 L 455.081542 -147.506445 C 466.767926 -147.506445 476.251395 -138.554175 476.251395 -127.508355 L 476.251395 213.505955 C 476.251395 224.551775 466.767926 233.504045 455.081542 233.504045 L 52.916822 233.504045 C 41.230438 233.504045 31.746968 224.551775 31.746968 213.505955 L 31.746968 -127.508355 C 31.746968 -138.554175 41.230438 -147.506445 52.916822 -147.506445 Z M 52.916822 -147.506445 " transform="matrix(0.250024,0,0,0.250024,0,53.755133)"/>
<path style="fill-rule:nonzero;fill:url(#linear2);stroke-width:3;stroke-linecap:round;stroke-linejoin:miter;stroke:rgb(12.941177%,12.941177%,12.941177%);stroke-opacity:1;stroke-miterlimit:4;" d="M 370.417752 41.006803 C 364.558936 41.006803 359.840637 45.725102 359.840637 51.583918 L 359.840637 70.769585 C 356.309724 71.894478 352.888176 73.300594 349.638486 74.956686 L 336.092905 61.426728 C 331.952675 57.270874 325.281437 57.270874 321.125584 61.426728 L 306.158263 76.394048 C 302.018034 80.534278 302.018034 87.205516 306.158263 91.361369 L 319.703845 104.891327 C 318.047753 108.15664 316.641637 111.562565 315.501121 115.093478 L 296.331077 115.093478 C 290.472261 115.093478 285.753962 119.811777 285.753962 125.670593 L 285.753962 146.840446 C 285.753962 152.699261 290.472261 157.417561 296.331077 157.417561 L 315.501121 157.417561 C 316.641637 160.948474 318.047753 164.354398 319.703845 167.619712 L 306.158263 181.14967 C 302.018034 185.305523 302.018034 191.976761 306.158263 196.11699 L 321.125584 211.084311 C 325.281437 215.240164 331.952675 215.240164 336.092905 211.084311 L 349.638486 197.554353 C 352.888176 199.210445 356.309724 200.616561 359.840637 201.757077 L 359.840637 220.927121 C 359.840637 226.785937 364.558936 231.504236 370.417752 231.504236 L 391.587605 231.504236 C 397.446421 231.504236 402.16472 226.785937 402.16472 220.927121 L 402.16472 201.757077 C 405.695633 200.616561 409.101558 199.210445 412.366871 197.554353 L 425.896829 211.084311 C 430.052682 215.240164 436.72392 215.240164 440.86415 211.084311 L 455.83147 196.11699 C 459.987323 191.976761 459.987323 185.305523 455.83147 181.14967 L 442.285889 167.619712 C 443.957604 164.354398 445.36372 160.948474 446.488612 157.417561 L 465.67428 157.417561 C 471.533096 157.417561 476.251395 152.699261 476.251395 146.840446 L 476.251395 125.670593 C 476.251395 119.811777 471.533096 115.093478 465.67428 115.093478 L 446.488612 115.093478 C 445.36372 111.562565 443.957604 108.15664 442.285889 104.891327 L 455.83147 91.361369 C 459.987323 87.205516 459.987323 80.534278 455.83147 76.394048 L 440.86415 61.426728 C 436.72392 57.270874 430.052682 57.270874 425.896829 61.426728 L 412.351247 74.956686 C 409.101558 73.300594 405.695633 71.894478 402.16472 70.769585 L 402.16472 51.583918 C 402.16472 45.725102 397.446421 41.006803 391.587605 41.006803 Z M 380.994867 93.923624 C 404.445752 93.923624 423.334574 112.796822 423.334574 136.263331 C 423.334574 159.714217 404.445752 178.587414 380.994867 178.587414 C 357.543981 178.587414 338.670784 159.714217 338.670784 136.263331 C 338.670784 112.796822 357.543981 93.923624 380.994867 93.923624 Z M 380.994867 93.923624 " transform="matrix(0.250024,0,0,0.250024,0,53.755133)"/>
</g>
</svg>

<svg xmlns="http://www.w3.org/2000/svg" width="128pt" height="128pt" viewBox="0 0 128 128"><defs><linearGradient id="a" gradientUnits="userSpaceOnUse" x1="254" y1="233.5" x2="254" y2="254.667" gradientTransform="matrix(.25002 0 0 .25002 -2.646 53.755)"><stop offset="0" stop-opacity=".275"/><stop offset="1" stop-opacity="0"/></linearGradient><radialGradient id="b" gradientUnits="userSpaceOnUse" cx="450.909" cy="189.579" fx="450.909" fy="189.579" r="21.167" gradientTransform="matrix(0 -.31253 -.56255 0 213.815 254.381)"><stop offset="0" stop-opacity=".314"/><stop offset=".222" stop-opacity=".275"/><stop offset="1" stop-opacity="0"/></radialGradient><radialGradient id="c" gradientUnits="userSpaceOnUse" cx="450.909" cy="189.579" fx="450.909" fy="189.579" r="21.167" gradientTransform="matrix(0 .31253 .56255 0 -86.803 -30.11)"><stop offset="0" stop-opacity=".314"/><stop offset=".222" stop-opacity=".275"/><stop offset="1" stop-opacity="0"/></radialGradient><radialGradient id="d" gradientUnits="userSpaceOnUse" cx="450.909" cy="189.579" fx="450.909" fy="189.579" r="21.167" gradientTransform="matrix(0 -.31253 .56255 0 -86.803 254.381)"><stop offset="0" stop-opacity=".314"/><stop offset=".222" stop-opacity=".275"/><stop offset="1" stop-opacity="0"/></radialGradient><radialGradient id="e" gradientUnits="userSpaceOnUse" cx="450.909" cy="189.579" fx="450.909" fy="189.579" r="21.167" gradientTransform="matrix(0 .31253 -.56255 0 213.815 -30.11)"><stop offset="0" stop-opacity=".314"/><stop offset=".222" stop-opacity=".275"/><stop offset="1" stop-opacity="0"/></radialGradient><linearGradient id="f" gradientUnits="userSpaceOnUse" x1="306.753" y1="-16.485" x2="305.955" y2="-141.415" gradientTransform="matrix(.2883 0 0 .7625 -19.637 124.706)"><stop offset="0" stop-color="#66bb6a"/><stop offset="1" stop-color="#81c784"/></linearGradient><linearGradient id="g" gradientUnits="userSpaceOnUse" x1="254" y1="148.833" x2="254" y2="-41.667" gradientTransform="translate(127 80.68)"><stop offset="0" stop-color="#424242"/><stop offset="1" stop-color="#616161"/></linearGradient></defs><path d="M18.523 112.43h89.965v5H18.523zm0 0" fill="url(#a)"/><path d="M108.488 112.137h10.586v-5.293h-10.586zm0 0" fill="url(#b)"/><path d="M18.523 112.137H7.938v5.293h10.585zm0 0" fill="url(#c)"/><path d="M18.523 112.137H7.938v-5.293h10.585zm0 0" fill="url(#d)"/><path d="M108.488 112.137h10.586v5.293h-10.586zm0 0" fill="url(#e)"/><path d="M13.23 16.875h100.551c2.922 0 5.293 2.238 5.293 5v85.262c0 2.761-2.37 5-5.293 5H13.231c-2.922 0-5.293-2.239-5.293-5V21.875c0-2.762 2.37-5 5.292-5zm0 0" fill="url(#f)"/><path d="M34.625 50.633a2.643 2.643 0 0 0-3.742 0 2.643 2.643 0 0 0 0 3.742l7.484 7.484-7.484 7.485a2.643 2.643 0 0 0 0 3.742 2.643 2.643 0 0 0 3.742 0l9.355-9.356c.067-.062.125-.132.184-.199a2.64 2.64 0 0 0-.184-3.543zm0 0" fill-opacity=".588"/><path d="M13.23 16.875c-2.933 0-5.293 2.23-5.293 5v1.324c0-2.77 2.36-5 5.293-5h100.551c2.934 0 5.293 2.23 5.293 5v-1.324c0-2.77-2.36-5-5.293-5zm0 0" fill="#fff" fill-opacity=".392"/><path d="M13.23 112.172c-2.933 0-5.293-2.23-5.293-4.996v-1.324c0 2.77 2.36 4.996 5.293 4.996h100.551c2.934 0 5.293-2.227 5.293-4.996v1.324c0 2.765-2.36 4.996-5.293 4.996zm0 0" fill-opacity=".235"/><path d="M15.875 21.855a2.958 2.958 0 0 0-2.957 2.961v74.09a2.957 2.957 0 0 0 2.957 2.957h95.262a2.957 2.957 0 0 0 2.957-2.957v-74.09a2.958 2.958 0 0 0-2.957-2.96zm0 .625h95.262a2.322 2.322 0 0 1 2.332 2.336v74.09a2.32 2.32 0 0 1-2.332 2.332H15.875a2.32 2.32 0 0 1-2.332-2.332v-74.09c0-1.3 1.035-2.336 2.332-2.336zm0 0" fill="#212121" fill-opacity=".953"/><path d="M15.875 22.52a2.298 2.298 0 0 0-2.297 2.296v74.09a2.3 2.3 0 0 0 2.297 2.297h95.262a2.3 2.3 0 0 0 2.297-2.297v-74.09a2.298 2.298 0 0 0-2.297-2.296zm0 .625h95.262c.93 0 1.672.738 1.672 1.671v74.09c0 .93-.743 1.672-1.672 1.672H15.875c-.93 0-1.672-.742-1.672-1.672v-74.09c0-.933.742-1.671 1.672-1.671zm0 0" fill="#dedede" fill-opacity=".929"/><path d="M13.23 16.875h100.551c2.922 0 5.293 2.238 5.293 5v85.262c0 2.761-2.37 5-5.293 5H13.231c-2.922 0-5.293-2.239-5.293-5V21.875c0-2.762 2.37-5 5.292-5zm0 0" fill="none" stroke-width=".7500600000000001" stroke-linecap="round" stroke="#212121"/><path d="M370.418 41.007a10.555 10.555 0 0 0-10.577 10.577V70.77a67.88 67.88 0 0 0-10.203 4.187l-13.545-13.53a10.543 10.543 0 0 0-14.967 0l-14.968 14.967c-4.14 4.14-4.14 10.812 0 14.967l13.546 13.53a70.334 70.334 0 0 0-4.203 10.202h-19.17a10.555 10.555 0 0 0-10.577 10.578v21.17a10.555 10.555 0 0 0 10.577 10.577h19.17a70.334 70.334 0 0 0 4.203 10.202l-13.546 13.53c-4.14 4.156-4.14 10.827 0 14.967l14.968 14.967a10.543 10.543 0 0 0 14.967 0l13.545-13.53a69.619 69.619 0 0 0 10.203 4.203v19.17a10.555 10.555 0 0 0 10.577 10.577h21.17a10.555 10.555 0 0 0 10.577-10.577v-19.17a70.334 70.334 0 0 0 10.202-4.203l13.53 13.53a10.543 10.543 0 0 0 14.967 0l14.967-14.967a10.543 10.543 0 0 0 0-14.967l-13.545-13.53a66.996 66.996 0 0 0 4.203-10.202h19.185a10.555 10.555 0 0 0 10.577-10.578v-21.17a10.555 10.555 0 0 0-10.577-10.577H446.49a66.996 66.996 0 0 0-4.203-10.202l13.545-13.53a10.543 10.543 0 0 0 0-14.967l-14.967-14.967a10.543 10.543 0 0 0-14.967 0l-13.546 13.53a67.698 67.698 0 0 0-10.186-4.187V51.584a10.555 10.555 0 0 0-10.577-10.577zm10.577 52.917c23.45 0 42.34 18.873 42.34 42.34 0 23.45-18.89 42.323-42.34 42.323-23.451 0-42.324-18.873-42.324-42.324 0-23.466 18.873-42.34 42.324-42.34zm0 0" transform="matrix(.25002 0 0 .25002 0 53.755)" fill="url(#g)" stroke-width="3" stroke-linecap="round" stroke="#212121"/></svg>
